X:086
U: ~ = !turn!
%%topmargin 3cm
T:Hornpipe #2
B:Traditional Irish Fiddle Tunes. Randy Miller and Jack Perron.
Z:Transcribed by Ralph Palmer
R:Hornpipe
M:C|
L:1/8
K:D
FG | ABAF ABde | fgef dcdA | BGdB AFDF | GFED E2 FG |
ABAF A2 de | fgef dcdA | BGdB AFEG | F2 D2 D2 ::
fg | agfd gfec | dcde fdAF | GABG FADF | Eegf edce |
agfd gfec | dcde fdAF | GABG FAEG | {FG}F2 D2 D2 :|]
